!!!COM: Arthur Honegger
!!!OTL: [T596_Hon-w29p53h17m1-7]
!!!ONB: All instruments showing in C
**kern	**dynam	**kern	**dynam	**kern	**dynam	**kern	**dynam	**kern	**dynam	**kern	**text	**dynam	**kern	**text	**dynam	**kern	**text	**text	**text	**dynam	**kern	**text	**dynam	**kern	**dynam	**text	**text	**text	**kern	**kern	**kern	**kern	**kern	**kern	**kern	**kern	**kern	**kern	**dynam
*grp:A	*	*grp:A	*	*grp:A	*	*grp:A	*	*grp:A	*	*grp:B	*	*	*grp:B	*	*	*grp:B	*	*	*	*	*grp:B	*	*	*grp:B	*	*	*	*	*grp:B	*grp:A	*grp:A	*grp:A	*grp:A	*grp:A	*grp:A	*grp:A	*grp:A	*grp:B	*
*part18	*part18	*part17	*part17	*part16	*part16	*part15	*part15	*part14	*part14	*part13	*part13	*part13	*part12	*part12	*part12	*part11	*part11	*part11	*part11	*part11	*part10	*part10	*part10	*part9	*	*part9	*part9	*part9	*part8	*part7	*part6	*part6	*part5	*part5	*part4	*part3	*part2	*part1	*part1
*staff20	*	*staff19	*	*staff18	*	*staff17	*	*staff16	*	*staff15	*staff15	*	*staff14	*staff14	*	*staff13	*staff13	*staff13	*staff13	*	*staff12	*staff12	*	*staff11	*	*staff11	*staff11	*staff11	*staff10	*staff9	*staff8	*staff7	*staff6	*staff5	*staff4	*staff3	*staff2	*staff1	*
*I"Contrabass	*	*I"Violoncello	*	*I"Viola	*	*I"Violin II	*	*I"Violin I	*	*I"Bass	*	*	*I"Tenor	*	*	*I"Alto	*	*	*	*	*I"Soprano	*	*	*I"Porcus	*	*	*	*	*I"Cymbals	*I"Timpani	*I"Piano 2.	*	*I"Piano 1.	*	*I"Trombone 3.	*I"Trombone 1. 2.	*I"3 Trumpets in C	*I"Piccolo Trumpet in D	*
*I'Cb.	*	*I'Vc.	*	*I'Vla.	*	*I'Vln. II	*	*I'Vln. I	*	*I'B.	*	*	*I'T.	*	*	*I'A.	*	*	*	*	*I'S.	*	*	*I'Porcus	*	*	*	*	*I'Cym.	*I'Timp.	*I'Pno.	*	*I'Pno.	*	*I'Tbn.	*I'Tbn.	*I'Tpt.	*I'Picc. Tpt.	*
*	*	*	*	*	*	*	*	*	*	*	*	*	*	*	*	*	*	*	*	*	*	*	*	*	*	*	*	*	*stria1	*	*	*	*	*	*	*	*	*	*
*clefF4	*	*clefF4	*	*clefC3	*	*clefG2	*	*clefG2	*	*clefF4	*	*	*clefG2	*	*	*clefG2	*	*	*	*	*clefG2	*	*	*clefG2	*	*	*	*	*clefX	*clefF4	*clefF4	*clefG2	*clefF4	*clefG2	*clefF4	*clefC4	*clefG2	*clefG2	*
*ITrd7c12	*	*	*	*	*	*	*	*	*	*	*	*	*ITrd7c12	*	*	*	*	*	*	*	*	*	*	*ITrd7c12	*	*	*	*	*	*	*	*	*	*	*	*	*ITrd0c0	*ITrd0c0	*
*k[]	*	*k[]	*	*k[]	*	*k[]	*	*k[]	*	*k[]	*	*	*k[]	*	*	*k[]	*	*	*	*	*k[]	*	*	*k[]	*	*	*	*	*k[]	*k[]	*k[]	*k[]	*k[]	*k[]	*k[]	*k[]	*k[]	*k[]	*
*	*	*	*	*	*	*	*	*	*	*	*	*	*	*	*	*	*	*	*	*	*	*	*	*	*	*	*	*	*C:	*	*	*	*	*	*	*	*	*	*
*M2/2	*	*M2/2	*	*M2/2	*	*M2/2	*	*M2/2	*	*M2/2	*	*	*M2/2	*	*	*M2/2	*	*	*	*	*M2/2	*	*	*M2/2	*	*	*	*	*M2/2	*M2/2	*M2/2	*M2/2	*M2/2	*M2/2	*M2/2	*M2/2	*M2/2	*M2/2	*
*met(c|)	*	*met(c|)	*	*met(c|)	*	*met(c|)	*	*met(c|)	*	*met(c|)	*	*	*met(c|)	*	*	*met(c|)	*	*	*	*	*met(c|)	*	*	*met(c|)	*	*	*	*	*met(c|)	*met(c|)	*met(c|)	*met(c|)	*met(c|)	*met(c|)	*met(c|)	*met(c|)	*met(c|)	*met(c|)	*
*	*	*	*	*	*	*	*	*	*	*	*	*	*	*	*	*	*	*	*	*	*	*	*	*8ba	*	*	*	*	*	*	*	*	*	*	*	*	*	*	*
!!LO:REH:t=17
=1	=1	=1	=1	=1	=1	=1	=1	=1	=1	=1	=1	=1	=1	=1	=1	=1	=1	=1	=1	=1	=1	=1	=1	=1	=1	=1	=1	=1	=1	=1	=1	=1	=1	=1	=1	=1	=1	=1	=1
!	!	!	!	!	!	!	!	!	!	!	!	!	!	!	!	!	!	!	!	!	!	!	!	!	!	!	!	!	!	!	!	!	!	!	!	!	!	!LO:TX:t=[half]=80	!
!	!LO:DY:rj	!	!LO:DY:rj	!	!LO:DY:rj	!	!LO:DY:rj	!LO:TX:t=[half]=80	!LO:DY:rj	!	!	!	!	!	!	!	!	!	!	!	!	!	!	!	!LO:DY:t=[ %s ]	!	!	!	!	!	!	!	!	!	!	!	!	!	!LO:DY:a
*	*	*	*	*	*	*	*	*	*	*	*	*	*	*	*	*	*	*italic	*	*	*	*	*	*	*	*	*italic	*	*	*	*	*	*	*	*	*	*	*	*
4GGG 4DD	4ryy	4GG 4D 4B	4ryy	4B 4g 4ee	4ryy	4g 4b 4ee	4ryy	4d 4b 4gg	4ryy	2ryy	.	.	2ryy	.	.	2ryy	.	.	.	.	2ryy	.	.	4ryy	4ryy	4ryy	4ryy	4ryy	1ryy	4GG	4GG 4D 4B	4b 4dd 4ee 4gg	4GG 4D 4B	4b 4dd 4ee 4gg	4r	4r	4r	1ryy	4ryy
4r	.	4r	.	4r	.	4r	.	4r	.	.	.	.	.	.	.	.	.	.	.	.	.	.	.	4ryy	.	4ryy	4ryy	4ryy	.	4r	4r	4r	4r	4r	4d^	4e^ 4g	4bX^ 4dd 4eeX	.	.
!	!	!	!	!	!	!	!	!	!	!	!	!LO:DY:rj	!	!	!LO:DY:rj	!	!	!	!	!LO:DY:rj	!	!	!LO:DY:rj	!	!	!	!	!	!	!	!	!	!	!	!	!	!	!	!
4r	.	4r	.	4r	.	4r	.	4r	.	4ryy	4ryy	4ryy	4ryy	4ryy	4ryy	4ryy	4ryy	.	.	4ryy	4ryy	4ryy	4ryy	2ryy	.	.	.	.	.	4r	4r	4r	4r	4r	4d^	4e^ 4g	4b^ 4dd 4ee	.	.
4GGG 4DD	.	4GG 4D 4B	.	4B 4g 4ee	.	4g 4b 4ee	.	4d 4b 4gg	.	4ryy	4ryy	.	4ryy	4ryy	.	4ryy	4ryy	.	.	.	4ryy	4ryy	.	.	.	.	.	.	.	4GG	4GG 4D 4B	4b 4dd 4ee 4gg	4GG 4D 4B	4b 4dd 4ee 4gg	4r^	4r^	4r	.	.
=2	=2	=2	=2	=2	=2	=2	=2	=2	=2	=2	=2	=2	=2	=2	=2	=2	=2	=2	=2	=2	=2	=2	=2	=2	=2	=2	=2	=2	=2	=2	=2	=2	=2	=2	=2	=2	=2	=2	=2
2r	.	2r	.	2r	.	2r	.	2r	.	1ryy	.	.	1ryy	.	.	1ryy	.	.	.	.	1ryy	.	.	4ryy	.	.	.	.	1ryy	2r	2r	2r	2r	2r	4d	4e 4g	4bX 4dd 4eeX	1ryy	.
.	.	.	.	.	.	.	.	.	.	.	.	.	.	.	.	.	.	.	.	.	.	.	.	4ryy	.	4ryy	4ryy	4ryy	.	.	.	.	.	.	4d	4e 4g	4b 4dd 4ee	.	.
4GGG 4DD	.	4GG 4D 4B	.	4B 4g 4ee	.	4g 4b 4ee	.	4d 4b 4gg	.	.	.	.	.	.	.	.	.	.	.	.	.	.	.	4ryy	.	4ryy	4ryy	4ryy	.	4GG	4GG 4D 4B	4b 4dd 4ee 4gg	4GG 4D 4B	4b 4dd 4ee 4gg	4r	4r	4r	.	.
4r	.	4r	.	4r	.	4r	.	4r	.	.	.	.	.	.	.	.	.	.	.	.	.	.	.	4ryy	.	4ryy	4ryy	4ryy	.	4r	4r	4r	4r	4r	4B	4d 4f#X	4a 4cc#X 4ffn	.	.
=3	=3	=3	=3	=3	=3	=3	=3	=3	=3	=3	=3	=3	=3	=3	=3	=3	=3	=3	=3	=3	=3	=3	=3	=3	=3	=3	=3	=3	=3	=3	=3	=3	=3	=3	=3	=3	=3	=3	=3
4r	.	4r	.	4r	.	4r	.	4r	.	2ryy	.	.	2ryy	.	.	2ryy	.	.	.	.	2ryy	.	.	4ryy	.	4ryy	4ryy	4ryy	1ryy	4r	4r	4r	4r	4r	4d	4e 4g	4bX 4dd 4eeX	1ryy	.
4GGG 4DD	.	4GG 4D 4B	.	4B 4g 4ee	.	4g 4b 4ee	.	4d 4b 4gg	.	.	.	.	.	.	.	.	.	.	.	.	.	.	.	4ryy	.	4ryy	4ryy	4ryy	.	4GG	4GG 4D 4B	4b 4dd 4ee 4gg	4GG 4D 4B	4b 4dd 4ee 4gg	4r	4r	4r	.	.
2r	.	2r	.	2r	.	2r	.	2r	.	4ryy	4ryy	.	4ryy	4ryy	.	4ryy	4ryy	.	.	.	4ryy	4ryy	.	2ryy	.	.	.	.	.	2r	2r	2r	2r	2r	4B	4d 4f#X	4a 4cc#X 4ffn	.	.
.	.	.	.	.	.	.	.	.	.	4ryy	4ryy	.	4ryy	4ryy	.	4ryy	4ryy	.	.	.	4ryy	4ryy	.	.	.	.	.	.	.	.	.	.	.	.	4d	4e 4g	4b 4dd 4ee	.	.
=4	=4	=4	=4	=4	=4	=4	=4	=4	=4	=4	=4	=4	=4	=4	=4	=4	=4	=4	=4	=4	=4	=4	=4	=4	=4	=4	=4	=4	=4	=4	=4	=4	=4	=4	=4	=4	=4	=4	=4
4GGG 4DD	.	4GG 4D 4B	.	4B 4g 4ee	.	4g 4b 4ee	.	4d 4b 4gg	.	2ryy	4ryy	.	1ryy	.	.	1ryy	.	.	.	.	1ryy	.	.	1ryy	.	4ryy	4ryy	4ryy	1ryy	4GG	4GG 4D 4B	4b 4dd 4ee 4gg	4GG 4D 4B	4b 4dd 4ee 4gg	4r	4r	4r	1ryy	.
4r	.	4r	.	4r	.	4r	.	4r	.	.	.	.	.	.	.	.	.	.	.	.	.	.	.	.	.	.	.	.	.	4r	4r	4r	4r	4r	4d	4e 4g	4bX 4dd 4eeX	.	.
4r	.	4r	.	4r	.	4r	.	4r	.	4ryy	4ryy	.	.	.	.	.	.	.	.	.	.	.	.	.	.	.	.	.	.	4r	4r	4r	4r	4r	4d	4e 4g	4b 4dd 4ee	.	.
4GGG 4DD	.	4GG 4D 4B	.	4B 4g 4ee	.	4g 4b 4ee	.	4d 4b 4gg	.	4ryy	.	.	.	.	.	.	.	.	.	.	.	.	.	.	.	.	.	.	.	4GG	4GG 4D 4B	4b 4dd 4ee 4gg	4GG 4D 4B	4b 4dd 4ee 4gg	4r	4r	4r	.	.
=5	=5	=5	=5	=5	=5	=5	=5	=5	=5	=5	=5	=5	=5	=5	=5	=5	=5	=5	=5	=5	=5	=5	=5	=5	=5	=5	=5	=5	=5	=5	=5	=5	=5	=5	=5	=5	=5	=5	=5
2r	.	2r	.	2r	.	2r	.	2r	.	2ryy	4ryy	.	2ryy	4ryy	.	1ryy	.	.	.	.	1ryy	.	.	1ryy	.	4ryy	4ryy	4ryy	1ryy	2r	2r	2r	2r	2r	4d	4e 4g	4bX 4dd 4eeX	1ryy	.
.	.	.	.	.	.	.	.	.	.	.	.	.	.	.	.	.	.	.	.	.	.	.	.	.	.	.	.	.	.	.	.	.	.	.	4d	4e 4g	4b 4dd 4ee	.	.
4GGG 4DD	.	4GG 4D 4B	.	4B 4g 4ee	.	4g 4b 4ee	.	4d 4b 4gg	.	4ryy	4ryy	.	4ryy	4ryy	.	.	.	.	.	.	.	.	.	.	.	.	.	.	.	4GG	4GG 4D 4B	4b 4dd 4ee 4gg	4GG 4D 4B	4b 4dd 4ee 4gg	4r	4r	4r	.	.
4r	.	4r	.	4r	.	4r	.	4r	.	4ryy	.	.	4ryy	.	.	.	.	.	.	.	.	.	.	.	.	.	.	.	.	4r	4r	4r	4r	4r	4B	4d 4f#X	4a 4cc#X 4ffn	.	.
=6	=6	=6	=6	=6	=6	=6	=6	=6	=6	=6	=6	=6	=6	=6	=6	=6	=6	=6	=6	=6	=6	=6	=6	=6	=6	=6	=6	=6	=6	=6	=6	=6	=6	=6	=6	=6	=6	=6	=6
4r	.	4r	.	4r	.	4r	.	4r	.	2ryy	4ryy	.	2ryy	4ryy	.	4ryy	.	.	.	.	4ryy	4ryy	.	4ryy	.	4ryy	4ryy	4ryy	4ryy	4r	4r	4r	4r	4r	4d	4e 4g	4bX 4dd 4eeX	4ryy	.
4GGG 4DD	.	4GG 4D 4B	.	4B 4g 4ee	.	4g 4b 4ee	.	4d 4b 4gg	.	.	.	.	.	.	.	4ryy	4ryy	4ryy	4ryy	.	4ryy	4ryy	.	4ryy	.	4ryy	4ryy	4ryy	4ryy	4GG	4GG 4D 4B	4b 4dd 4ee 4gg	4GG 4D 4B	4b 4dd 4ee 4gg	4r	4r	4r	4ryy	.
2r	2ryy	2r	2ryy	2r	2ryy	2r	2ryy	2r	.	4ryy	4ryy	.	4ryy	4ryy	.	4ryy	.	.	.	.	4ryy	4ryy	.	4ryy	.	4ryy	4ryy	4ryy	4ryy	2r	2r	2r	2r	2r	4B	4d 4f#X	4a 4cc#X 4ffn	4ryy	.
.	.	.	.	.	.	.	.	.	.	4ryy	.	.	4ryy	.	.	4ryy	4ryy	4ryy	4ryy	.	4ryy	4ryy	.	4ryy	.	4ryy	4ryy	4ryy	4ryy	.	.	.	.	.	4d	4e 4g	4b 4dd 4ee	4ryy	.
=7	=7	=7	=7	=7	=7	=7	=7	=7	=7	=7	=7	=7	=7	=7	=7	=7	=7	=7	=7	=7	=7	=7	=7	=7	=7	=7	=7	=7	=7	=7	=7	=7	=7	=7	=7	=7	=7	=7	=7
4GGG 4DD	.	4GG 4D 4B	.	4B 4g 4ee	.	4g 4b 4ee	.	4d 4b 4gg	.	2ryy	4ryy	.	2ryy	4ryy	.	4ryy	.	.	.	.	4ryy	4ryy	.	4ryy	.	4ryy	4ryy	4ryy	4ryy	4GG	4GG 4D 4B	4b 4dd 4ee 4gg	4GG 4D 4B	4b 4dd 4ee 4gg	4r	4r	4r	4ryy	.
4r	.	4r	.	4r	.	4r	.	4r	.	.	.	.	.	.	.	4ryy	4ryy	4ryy	4ryy	.	4ryy	4ryy	.	4ryy	.	4ryy	4ryy	4ryy	4ryy	4r	4r	4r	4r	4r	4B	4d 4f#X	4a 4cc#X 4ffn	4ryy	.
*	*	*	*	*	*	*	*	*	*	*	*	*	*	*	*	*	*	*	*	*	*	*	*	*X8ba	*	*	*	*	*	*	*	*	*	*	*	*	*	*	*
4r	.	4r	.	4r	.	4r	.	4r	.	4ryy	4ryy	.	4ryy	4ryy	.	4ryy	.	.	.	.	4ryy	4ryy	.	2ryy	.	.	.	.	4ryy	4r	4r	4r	4r	4r	2r	2r	2r	2ryy	.
4GGG 4DD	.	4GG 4D 4B	.	4B 4g 4ee	.	4g 4b 4ee	.	4d 4b 4gg	.	4ryy	.	.	4ryy	.	.	4ryy	4ryy	4ryy	4ryy	.	4ryy	4ryy	.	.	.	.	.	.	4ryy	4GG	4GG 4D 4B	4b 4dd 4ee 4gg	4GG 4D 4B	4b 4dd 4ee 4gg	.	.	.	.	.
=	=	=	=	=	=	=	=	=	=	=	=	=	=	=	=	=	=	=	=	=	=	=	=	=	=	=	=	=	=	=	=	=	=	=	=	=	=	=	=
*-	*-	*-	*-	*-	*-	*-	*-	*-	*-	*-	*-	*-	*-	*-	*-	*-	*-	*-	*-	*-	*-	*-	*-	*-	*-	*-	*-	*-	*-	*-	*-	*-	*-	*-	*-	*-	*-	*-	*-
!!!system-decoration: [(s1,s2)][(s3,s4)]{(s5,s6)}{(s7,s8)}[(s9)]<s10>[(s11)][(s12,s13,s14,s15)][(s16,s17,s18,s19,s20)]
!!!EED:Jason Lee
!!!EEV:2021/12/15
